svg/food/candy_2_line.svg

<?xml version="1.0" encoding="UTF-8"?>
<svg width="24px" height="24px" viewBox="0 0 24 24" version="1.1" xmlns="http://www.w3.org/2000/svg" xmlns:xlink="http://www.w3.org/1999/xlink">
    <title>candy_2_line</title>
    <g id="Icon" stroke="none" stroke-width="1" fill="none" fill-rule="evenodd">
        <g id="Food" transform="translate(-480.000000, 0.000000)" fill-rule="nonzero">
            <g id="candy_2_line" transform="translate(480.000000, 0.000000)">
                <path d="M24,0 L24,24 L0,24 L0,0 L24,0 Z M12.5935,23.2578 L12.5819,23.2595 L12.5109,23.295 L12.4919,23.2987 L12.4767,23.295 L12.4057,23.2595 C12.3958,23.2564 12.387,23.259 12.3821,23.2649 L12.378,23.2758 L12.3609,23.7031 L12.3659,23.7235 L12.3769,23.7357 L12.4805,23.8097 L12.4953,23.8136 L12.5071,23.8097 L12.6107,23.7357 L12.6233,23.7197 L12.6267,23.7031 L12.6096,23.2758 C12.6076,23.2657 12.601,23.2593 12.5935,23.2578 Z M12.8584,23.1453 L12.8445,23.1473 L12.6598,23.2397 L12.6499,23.2499 L12.6472,23.2611 L12.6651,23.6906 L12.6699,23.7034 L12.6784,23.7105 L12.8793,23.8032 C12.8914,23.8069 12.9022,23.803 12.9078,23.7952 L12.9118,23.7812 L12.8777,23.1665 C12.8753,23.1546 12.8674,23.147 12.8584,23.1453 Z M12.143,23.1473 C12.1332,23.1424 12.1222,23.1453 12.1156,23.1526 L12.1099,23.1665 L12.0758,23.7812 C12.0751,23.7927 12.0828,23.8019 12.0926,23.8046 L12.1083,23.8032 L12.3092,23.7105 L12.3186,23.7024 L12.3225,23.6906 L12.3404,23.2611 L12.3372,23.2485 L12.3278,23.2397 L12.143,23.1473 Z" id="MingCute"></path>
                <path d="M14.7006,2.07972 C15.2517,2.4767 15.6259,2.6794 15.9731,2.79417 C16.3148,2.90711 16.6952,2.95638 17.2904,2.95181 C17.8298,2.94767 18.2753,3.37204 18.2973,3.91098 C18.3266,4.62892 18.389,5.07247 18.5047,5.42856 C18.6145,5.76628 18.7907,6.08094 19.1339,6.50196 C19.3257,6.73728 19.4002,7.047 19.3364,7.34382 C19.2818,7.59820286 19.1305878,7.81954653 18.9175248,7.96310187 L18.8044,8.02896 C18.4823,8.19243 18.165,8.36553 17.8507,8.54369 C19.1841,9.97286 20,11.8911 20,13.9998 C20,18.4181 16.4183,21.9998 12,21.9998 C7.58172,21.9998 4,18.4181 4,13.9998 C4,11.8911 4.81592,9.97286 6.14929,8.54369 C5.83457,8.36527 5.51735,8.19055 5.19403,8.02819 C4.92254,7.89241 4.72732,7.6406 4.66355,7.34382 C4.59978,7.047 4.6743,6.73728 4.86611,6.50196 C5.20928,6.08094 5.38547,5.76628 5.49525,5.42856 C5.61101,5.07247 5.67342,4.62892 5.70274,3.91098 C5.72474,3.37204 6.17021,2.94767 6.70959,2.95181 C7.30484,2.95638 7.68523,2.90711 8.02686,2.79417 C8.37406,2.6794 8.7483,2.4767 9.29939,2.07972 C9.53726,1.90837 9.83834,1.85003 10.123,1.92013 C10.4076,1.9902 10.6471,2.18159 10.7782,2.44369 C10.967,2.8194 11.1713,3.18733 11.3809,3.55172 C11.5618,3.86602 11.7718,4.21649 12,4.57162 C12.2282,4.21649 12.4382,3.86602 12.6191,3.55172 C12.8255,3.193 13.0246,2.82995 13.2129,2.46136 C13.3474,2.19508 13.5849,1.99206 13.877,1.92013 C14.1617,1.85003 14.4627,1.90837 14.7006,2.07972 Z M12,8 C8.68629,8 6,10.6863 6,14 C6,17.3137 8.68629,20 12,20 C15.3137,20 18,17.3137 18,14 C18,10.6863 15.3137,8 12,8 Z M12.0572,10.8377 C12.2412,10.3169 12.8125,10.044 13.3332,10.2281 C14.4705,10.63 15.3702,11.5297 15.7721,12.6669 C15.9562,13.1877 15.6833,13.759 15.1625,13.943 C14.6789929,14.11395 14.1518561,13.8908541 13.931697,13.4411294 L13.8865,13.3334 C13.7040455,12.8174909 13.3143182,12.3973669 12.8185954,12.1745307 L12.6668,12.1137 C12.146,11.9297 11.8731,11.3584 12.0572,10.8377 Z M9.51421,4.3152 C9.23217,4.46922 8.95001,4.59545 8.65458,4.69311 C8.3174,4.80457 7.98219,4.87248 7.634,4.91062 C7.58716,5.31323 7.51418,5.68724 7.39728,6.04686 C7.31343,6.3048 7.21042,6.54518 7.08758,6.77664 L7.54865037,7.04242444 C7.62995,7.09029222 7.71319667,7.13985333 7.79797,7.19097 C8.64758,6.66553 9.60287,6.29467 10.6246,6.11763 C10.3720286,5.74643 10.1382,5.37541286 9.93121411,5.03157612 L9.64187977,4.53958102 C9.5973502,4.46210429 9.55475143,4.38717 9.51421,4.3152 Z M14.4858,4.3152 L14.3581265,4.53958102 L14.3581265,4.53958102 L14.0687878,5.03157612 C13.8618,5.37541286 13.6279714,5.74643 13.3754,6.11763 C14.3971,6.29467 15.3524,6.66553 16.202,7.19097 L16.6889556,6.90403889 C16.7659444,6.85969556 16.8405667,6.81718333 16.9124,6.77664 C16.7896,6.54518 16.6866,6.3048 16.6027,6.04686 C16.4858,5.68724 16.4128,5.31323 16.366,4.91062 C16.0178,4.87248 15.6826,4.80457 15.3454,4.69311 C15.05,4.59545 14.7678,4.46922 14.4858,4.3152 Z" id="形状" fill="#09244B"></path>
            </g>
        </g>
    </g>
</svg>

<svg xmlns="http://www.w3.org/2000/svg" width="24" height="24"><g fill="none" fill-rule="nonzero"><path d="M24 0v24H0V0h24ZM12.594 23.258l-.012.002-.071.035-.02.004-.014-.004-.071-.036c-.01-.003-.019 0-.024.006l-.004.01-.017.428.005.02.01.013.104.074.015.004.012-.004.104-.074.012-.016.004-.017-.017-.427c-.002-.01-.009-.017-.016-.018Zm.264-.113-.014.002-.184.093-.01.01-.003.011.018.43.005.012.008.008.201.092c.012.004.023 0 .029-.008l.004-.014-.034-.614c-.003-.012-.01-.02-.02-.022Zm-.715.002a.023.023 0 0 0-.027.006l-.006.014-.034.614c0 .012.007.02.017.024l.015-.002.201-.093.01-.008.003-.011.018-.43-.003-.012-.01-.01-.184-.092Z"/><path fill="#09244B" d="M14.7 2.08c.552.397.926.6 1.273.714.342.113.722.162 1.317.158a1 1 0 0 1 1.007.959c.03.718.092 1.161.208 1.518.11.337.286.652.629 1.073a1 1 0 0 1-.216 1.461l-.114.066c-.322.163-.639.337-.953.515a8 8 0 1 1-11.701 0 21.562 21.562 0 0 0-.956-.516 1 1 0 0 1-.328-1.526c.343-.421.52-.736.63-1.073.115-.357.177-.8.207-1.518a1 1 0 0 1 1.007-.96c.595.005.975-.044 1.317-.157.347-.115.721-.317 1.272-.714a1 1 0 0 1 1.48.364c.188.375.392.743.602 1.108.18.314.39.664.619 1.02a24.927 24.927 0 0 0 1.213-2.11c.134-.267.372-.47.664-.542a1 1 0 0 1 .824.16ZM12 8a6 6 0 1 0 0 12 6 6 0 0 0 0-12Zm.057 2.838a1 1 0 0 1 1.276-.61 4.008 4.008 0 0 1 2.44 2.439 1 1 0 0 1-1.841.774l-.046-.108a2.01 2.01 0 0 0-1.067-1.158l-.152-.061a1 1 0 0 1-.61-1.276ZM9.514 4.315c-.282.154-.564.28-.86.378-.337.112-.672.18-1.02.218-.047.402-.12.776-.237 1.136a4.54 4.54 0 0 1-.31.73l.462.265.249.149a7.95 7.95 0 0 1 2.827-1.073 23.34 23.34 0 0 1-.694-1.086l-.29-.492a29.887 29.887 0 0 1-.127-.225Zm4.972 0-.128.225-.29.492c-.206.343-.44.714-.693 1.086a7.95 7.95 0 0 1 2.827 1.073l.487-.287.223-.127a4.547 4.547 0 0 1-.31-.73 5.814 5.814 0 0 1-.236-1.136 4.919 4.919 0 0 1-1.02-.218 5.168 5.168 0 0 1-.86-.378Z"/></g></svg>
